H3/img/burger.svg

<svg viewBox="0 0 43 53" xmlns="http://www.w3.org/2000/svg"><g fill="#1a9ed4"><path d="m32.141 53h-21.282a5.866 5.866 0 0 1 -5.859-5.859v-2.641a1.5 1.5 0 0 1 1.5-1.5h30a1.5 1.5 0 0 1 1.5 1.5v2.641a5.866 5.866 0 0 1 -5.859 5.859zm-24.141-7v1.141a2.862 2.862 0 0 0 2.859 2.859h21.282a2.862 2.862 0 0 0 2.859-2.859v-1.141z"/><path d="m35.5 32h-28a4.505 4.505 0 0 1 -4.5-4.5v-3a4.505 4.505 0 0 1 4.5-4.5h28a4.505 4.505 0 0 1 4.5 4.5v3a4.505 4.505 0 0 1 -4.5 4.5zm-28-9a1.5 1.5 0 0 0 -1.5 1.5v3a1.5 1.5 0 0 0 1.5 1.5h28a1.5 1.5 0 0 0 1.5-1.5v-3a1.5 1.5 0 0 0 -1.5-1.5z"/><path d="m32.929 42a4.436 4.436 0 0 1 -4.358-4.5 1.364 1.364 0 1 0 -2.714 0 4.359 4.359 0 1 1 -8.714 0 1.364 1.364 0 1 0 -2.714 0 4.436 4.436 0 0 1 -4.358 4.5 4.436 4.436 0 0 1 -4.357-4.5 1.436 1.436 0 0 0 -1.357-1.5 1.436 1.436 0 0 0 -1.357 1.5 1.5 1.5 0 0 1 -3 0 4.436 4.436 0 0 1 4.357-4.5 4.435 4.435 0 0 1 4.357 4.5 1.436 1.436 0 0 0 1.357 1.5 1.437 1.437 0 0 0 1.358-1.5 4.359 4.359 0 1 1 8.714 0 1.364 1.364 0 1 0 2.714 0 4.359 4.359 0 1 1 8.714 0 1.364 1.364 0 1 0 2.715 0 4.359 4.359 0 1 1 8.714 0 1.5 1.5 0 0 1 -3 0 1.364 1.364 0 1 0 -2.714 0 4.436 4.436 0 0 1 -4.357 4.5z"/><path d="m38.5 18h-34a1.5 1.5 0 0 1 0-3h34a1.5 1.5 0 0 1 0 3z"/><path d="m36.5 13h-30a1.5 1.5 0 0 1 -1.5-1.5c0-5.246 2.862-11.5 16.5-11.5s16.5 6.254 16.5 11.5a1.5 1.5 0 0 1 -1.5 1.5zm-28.42-3h26.84c-.362-2.708-2.363-7-13.42-7s-13.058 4.292-13.42 7z"/></g></svg>

<svg xmlns="http://www.w3.org/2000/svg" viewBox="0 0 43 53"><defs><style>.a{fill:#1a9ed4;}</style></defs><path class="a" d="M32.141,53H10.859A5.866,5.866,0,0,1,5,47.141V44.5A1.5,1.5,0,0,1,6.5,43h30A1.5,1.5,0,0,1,38,44.5v2.641A5.866,5.866,0,0,1,32.141,53ZM8,46v1.141A2.862,2.862,0,0,0,10.859,50H32.141A2.862,2.862,0,0,0,35,47.141V46Z"/><path class="a" d="M35.5,32H7.5A4.505,4.505,0,0,1,3,27.5v-3A4.505,4.505,0,0,1,7.5,20h28A4.505,4.505,0,0,1,40,24.5v3A4.505,4.505,0,0,1,35.5,32Zm-28-9A1.5,1.5,0,0,0,6,24.5v3A1.5,1.5,0,0,0,7.5,29h28A1.5,1.5,0,0,0,37,27.5v-3A1.5,1.5,0,0,0,35.5,23Z"/><path class="a" d="M32.929,42a4.436,4.436,0,0,1-4.358-4.5,1.364,1.364,0,1,0-2.714,0,4.359,4.359,0,1,1-8.714,0,1.364,1.364,0,1,0-2.714,0A4.436,4.436,0,0,1,10.071,42a4.436,4.436,0,0,1-4.357-4.5A1.436,1.436,0,0,0,4.357,36,1.436,1.436,0,0,0,3,37.5a1.5,1.5,0,0,1-3,0A4.436,4.436,0,0,1,4.357,33a4.435,4.435,0,0,1,4.357,4.5A1.436,1.436,0,0,0,10.071,39a1.437,1.437,0,0,0,1.358-1.5,4.359,4.359,0,1,1,8.714,0,1.364,1.364,0,1,0,2.714,0,4.359,4.359,0,1,1,8.714,0,1.364,1.364,0,1,0,2.715,0A4.359,4.359,0,1,1,43,37.5a1.5,1.5,0,0,1-3,0,1.364,1.364,0,1,0-2.714,0A4.436,4.436,0,0,1,32.929,42Z"/><path class="a" d="M38.5,18H4.5a1.5,1.5,0,0,1,0-3h34a1.5,1.5,0,0,1,0,3Z"/><path class="a" d="M36.5,13H6.5A1.5,1.5,0,0,1,5,11.5C5,6.254,7.862,0,21.5,0S38,6.254,38,11.5A1.5,1.5,0,0,1,36.5,13ZM8.08,10H34.92c-.362-2.708-2.363-7-13.42-7S8.442,7.292,8.08,10Z"/></svg>
